X: 1
T: Robin Anderson (Orkney)
C: Donald Ridley
M: 4/4
L: 1/8
Z: 2013 John Chambers <jc:trillian.mit.edu>
S: From MIDI file sent by Mike Briggs in Wisconsin, who got it from Margaret Lambourne in the Netherlands.
N: Tune for "Crossing the Brook" by Roy Goldring
B: Social Dances 2002 (Leeds RSCDS 40th Anniversary Book) #4
K:A
cB |\
"A"A2a2 "E7"edcB | "A"A2E2 CA,CE |\
"D"DCDF "A"ECEA |1,3 "Bm"dcBA "E7"Bd :|2,4 "E7"cBAG "A"A2 :|
|: BA |\
"E7"GBE2 EGBG | "A"AcE2 EAce |\
"B7"^dfB2 B^dfa | "B7"gfe^d "E7"e=dcB |
y3 |\
"A"A2a2 "E7"edcB | "A"A2E2 "A7"CA,CE |\
"D"DCDF "A"ECEA | "E7"cBAG "A"A2 :|
